X:18043
T:Rosalie, the Prairie Flower
R:Barndance
C:George Frederick Root 1856
O:USA
Z:Paul Hardy's Session Tunebook 2022 (see www.paulhardy.net). Creative Commons cc by-nc-sa licenced.
M:4/4
L:1/8
Q:1/4=130
K:G
"D"D2|"G" B>AG>F "C"G2 E2|"G"D>ED<B, "D"D4|"G"B>AG>F "Em"G2 B2|"A7" A3 E "D"A4|
"G" B>AG>F "C"G2 E2|"G"D>ED<B, "D"D4|"C" E>FG>A "D7" B2 A2|"G" G4 G2:|
|:B2|"D" A2 G>A "G" B2 d2|"D" A2 G>A "G" B3z|"Em" G2 F>G "D"A2 B2|"Em" G2 F>G "D7" A3z|
"G" B>AG>F "C"G2 E2|"G"D>ED<B, "D"D4|"C" E>FG>A "D7" B2 A2|"G" G4 G2:|

